X: 563
T: My Heart is Sore.
T: ta mo .croi.de crai.dte.
R:air
N:"Plaintively.""Collected from J. O'Neill."
B:O'Neill's 563
Z:transcribed by J.B. Walsh walsh@math.ubc.ca
M:3/4
L:1/8
%Q:60
K:G
GA|B2 (Bc) (AB)| (.G2 .G2) (Bc)|(d2 e2) (dB)|A4 (de/f/)|
(g3a) bg|(ag) (e>d Bd)|{d}cB G2 (G>{B}A)|G4||
(GA)|(BG) (dB) (AB)|(.G2 .G2) (GA)|((Bd) (ef) (e^d))|(e3f) gf|
(e>d) (Bd) gB|(A2 G2) Bd|{d}cB G2 (G>{B}A)|G4||


